src/assets/logos/valhalla.svg

<svg width="39" height="35" viewBox="0 0 39 35" fill="none" xmlns="http://www.w3.org/2000/svg">
  <path
    d="M33.8914 28.8267C37.1326 25.3374 39.0004 20.7209 39.0004 15.9969C39.0004 9.71626 35.8141 3.86503 30.5403 0.322086L30.1558 0L28.9472 1.18098L29.2219 1.55675C30.9249 3.86503 31.694 6.65644 31.4742 9.50154C31.3094 11.5414 30.5952 13.3666 29.4965 14.977C26.9146 12.5077 23.3987 11.0046 19.4983 11.0046C15.5979 11.0046 12.082 12.5077 9.50004 14.977C8.18159 13.0445 7.46743 10.7899 7.46743 8.42791C7.46743 5.95859 8.23653 3.54295 9.77472 1.55675L10.0494 1.18098L8.84082 0L8.45627 0.268405C2.41337 4.34816 -0.772884 11.3267 0.161019 18.5199C0.655437 22.4387 2.46831 25.9816 5.10521 28.773V35H33.8914V28.8267ZM33.8914 27.1089V25.069C33.8914 24.3712 33.8364 23.727 33.7266 23.0828C35.6493 20.3988 36.8029 17.0706 36.8029 13.5276C36.8029 11.9709 36.5832 10.4141 36.1437 8.96473L36.5283 9.17945C37.4072 11.273 37.9017 13.5813 37.9017 15.9433C37.8467 20.023 36.4733 23.9417 33.8914 27.1089ZM19.3335 33.9264C18.6743 33.9264 18.07 33.8727 17.4107 33.819C13.0708 33.3359 9.17043 31.3497 6.25885 28.3972V25.1227C6.25885 24.908 6.25885 24.6396 6.25885 24.4248C9.44511 28.1288 14.1696 30.4908 19.4983 30.4908C24.827 30.4908 29.5515 28.1288 32.7377 24.4248C32.7377 24.6396 32.7377 24.908 32.7377 25.1227V28.3972C32.4081 28.7193 32.0785 29.0414 31.7489 29.3635C28.3429 32.3696 24.0579 33.9264 19.4983 33.9264H19.3335ZM4.33611 8.10583L4.72066 7.8911C4.50092 8.91104 4.39105 9.98466 4.39105 11.0583C4.39105 13.9034 5.21508 16.5874 6.6434 18.842C6.20392 19.7009 5.8743 20.6135 5.59963 21.5261C4.1713 19.1641 3.34727 16.4264 3.34727 13.5276C3.34727 11.7025 3.67689 9.82362 4.33611 8.10583ZM7.35756 19.9156C10.1043 23.5123 14.5541 25.8742 19.4983 25.8742C24.4425 25.8742 28.8922 23.5123 31.639 19.9156C32.0785 20.8282 32.3532 21.8482 32.5729 22.8681C29.6064 26.7868 24.882 29.3635 19.4983 29.3635C14.1146 29.3635 9.39017 26.7868 6.42366 22.8681C6.6434 21.7945 6.91808 20.8282 7.35756 19.9156ZM10.4339 17.7684C13.0708 20.2377 16.5867 21.4724 20.2124 21.2577C23.9481 21.0429 27.2991 19.3252 29.5515 16.6411C30.1008 17.2853 30.6502 17.9831 31.0347 18.7347C28.5626 22.385 24.2777 24.7469 19.4983 24.7469C14.7189 24.7469 10.4339 22.385 7.90691 18.7883C8.3464 18.0368 8.84082 17.339 9.39017 16.6948C9.71978 17.0706 10.0494 17.4463 10.4339 17.7684ZM13.4005 18.5736C15.1584 17.339 17.3009 16.6948 19.4983 16.6948C21.6957 16.6948 23.7833 17.339 25.5412 18.5736C23.9481 19.4862 22.0803 20.0767 20.1575 20.184C17.7404 20.2914 15.4331 19.7546 13.4005 18.5736ZM34.6605 8.10583C35.3197 9.82362 35.6493 11.7025 35.6493 13.5813C35.6493 16.4801 34.8253 19.2178 33.3969 21.5798C33.1223 20.6135 32.7927 19.7546 32.3532 18.8957C33.7815 16.6411 34.6055 13.9571 34.6055 11.112C34.6055 10.0383 34.4957 8.96472 34.2759 7.94479L34.6605 8.10583ZM32.6279 9.6089C32.7377 8.69632 32.6828 7.73006 32.5729 6.81749L32.9575 7.03221C33.342 8.32055 33.5618 9.66258 33.5618 11.0583C33.5618 13.4739 32.9025 15.7822 31.8038 17.7147C31.3643 17.0169 30.8699 16.3727 30.3206 15.7822C31.5841 14.0107 32.4081 11.8635 32.6279 9.6089ZM19.4983 12.1319C23.124 12.1319 26.4202 13.5813 28.8373 15.8896C28.1781 16.6948 27.409 17.3926 26.585 17.9831C24.5523 16.4801 22.0803 15.6212 19.4983 15.6212C16.9163 15.6212 14.4442 16.4801 12.4116 17.9831C11.9721 17.661 11.5876 17.339 11.203 17.0169C10.8185 16.6948 10.4889 16.319 10.1593 15.8896C12.5764 13.5813 15.8726 12.1319 19.4983 12.1319ZM8.67601 15.7822C8.12666 16.3727 7.63224 17.0169 7.19275 17.7147C6.03911 15.7285 5.43482 13.4739 5.43482 11.0583C5.43482 9.66258 5.65456 8.32055 6.03911 7.03221L6.36872 6.81749C6.31379 7.35429 6.25885 7.8911 6.25885 8.42791C6.31379 11.112 7.13782 13.6887 8.67601 15.7822ZM1.25973 18.3589C0.820244 15.1917 1.25973 12.0245 2.46831 9.17945L2.85285 8.96473C2.41337 10.4678 2.19363 11.9709 2.19363 13.5276C2.19363 17.0706 3.34727 20.3988 5.27001 23.0828C5.16014 23.727 5.10521 24.3712 5.10521 25.069V27.0552C3.0726 24.6396 1.69921 21.6334 1.25973 18.3589ZM6.20392 29.9003C8.12666 31.6718 10.4339 33.0138 12.906 33.9264H6.20392V29.9003ZM26.0905 33.9264C28.4528 33.1212 30.5952 31.8328 32.518 30.1687C32.6279 30.115 32.6828 30.0077 32.7927 29.954V33.9264H26.0905Z"
    fill="black"></path>
</svg>

<svg width="39" height="35" viewBox="0 0 39 35" fill="none" xmlns="http://www.w3.org/2000/svg"><path d="M33.891 28.827c3.242-3.49 5.11-8.106 5.11-12.83 0-6.28-3.187-12.132-8.46-15.675L30.155 0l-1.209 1.181.275.376c1.703 2.308 2.472 5.1 2.252 7.945-.165 2.04-.879 3.865-1.977 5.475-2.582-2.47-6.098-3.972-9.999-3.972-3.9 0-7.416 1.503-9.998 3.972a11.565 11.565 0 0 1-2.033-6.55c0-2.468.77-4.884 2.308-6.87l.274-.376L8.841 0l-.385.268C2.413 4.348-.773 11.327.161 18.52c.494 3.919 2.307 7.462 4.944 10.253V35h28.786v-6.173zm0-1.718v-2.04c0-.698-.055-1.342-.164-1.986a16.433 16.433 0 0 0 3.076-9.555c0-1.557-.22-3.114-.66-4.563l.385.214a17.529 17.529 0 0 1 1.374 6.764c-.055 4.08-1.429 7.999-4.01 11.166zm-14.557 6.817c-.66 0-1.264-.053-1.923-.107a18.544 18.544 0 0 1-11.152-5.422v-3.274-.698a17.388 17.388 0 0 0 13.24 6.066 17.387 17.387 0 0 0 13.239-6.066v3.972l-.99.966c-3.405 3.007-7.69 4.563-12.25 4.563h-.165zM4.336 8.106l.385-.215c-.22 1.02-.33 2.094-.33 3.167 0 2.845.824 5.53 2.252 7.784-.44.859-.769 1.771-1.043 2.684a15.422 15.422 0 0 1-2.253-7.998c0-1.825.33-3.704.99-5.422zm3.022 11.81c2.746 3.596 7.196 5.958 12.14 5.958 4.944 0 9.394-2.362 12.141-5.958.44.912.714 1.932.934 2.952a16.349 16.349 0 0 1-13.075 6.495 16.349 16.349 0 0 1-13.074-6.495c.22-1.073.494-2.04.934-2.952zm3.076-2.148c2.637 2.47 6.153 3.704 9.778 3.49 3.736-.215 7.087-1.933 9.34-4.617.549.644 1.098 1.342 1.483 2.094-2.472 3.65-6.757 6.012-11.537 6.012-4.78 0-9.064-2.362-11.591-5.959.44-.751.934-1.449 1.483-2.093.33.376.66.751 1.044 1.073zm2.966.806c1.758-1.235 3.9-1.88 6.098-1.88s4.285.645 6.043 1.88a12.315 12.315 0 0 1-5.384 1.61c-2.417.107-4.724-.43-6.757-1.61zM34.66 8.106c.66 1.718.99 3.597.99 5.475 0 2.9-.825 5.637-2.253 7.999a14.388 14.388 0 0 0-1.044-2.684 14.532 14.532 0 0 0 2.252-7.784c0-1.074-.11-2.147-.33-3.167l.386.16zm-2.032 1.503c.11-.913.055-1.879-.055-2.792l.385.215c.384 1.289.604 2.63.604 4.026 0 2.416-.66 4.724-1.758 6.657a13.005 13.005 0 0 0-1.483-1.933 12.839 12.839 0 0 0 2.307-6.173zm-13.13 2.523a13.51 13.51 0 0 1 9.34 3.758 11.747 11.747 0 0 1-2.253 2.093c-2.033-1.503-4.505-2.362-7.087-2.362s-5.054.86-7.086 2.362c-.44-.322-.824-.644-1.209-.966-.384-.322-.714-.698-1.044-1.127a13.51 13.51 0 0 1 9.34-3.758zm-10.822 3.65c-.55.59-1.044 1.235-1.483 1.933-1.154-1.986-1.758-4.241-1.758-6.657 0-1.395.22-2.737.604-4.026l.33-.215c-.055.537-.11 1.074-.11 1.61.055 2.685.879 5.262 2.417 7.355zM1.26 18.36c-.44-3.167 0-6.335 1.208-9.18l.385-.214a16.089 16.089 0 0 0-.66 4.563c0 3.543 1.154 6.87 3.077 9.555a11.64 11.64 0 0 0-.165 1.986v1.986A17.039 17.039 0 0 1 1.26 18.36zM6.204 29.9c1.923 1.772 4.23 3.114 6.702 4.026H6.204V29.9zm19.886 4.026c2.363-.805 4.505-2.093 6.428-3.757.11-.054.165-.161.275-.215v3.972H26.09z" fill="#000"/></svg>
